X: 3084
Q:"Reel."
M: C
L: 1/8
K: A
ue2 |\
dcBA EAcd | efec B2(ec) |\
dcBA EAcd | cdBG A2 :|\
(ed) |\
c2ea d2fb | gagf efed |
c2ea d2fb | gagf e2(dc) |\
dddb ccca | BcBA GFED |\


